X: 588
T: The Pilgrim
T: The Ld Foppington
T: The Lord Phopington
P: Longways for as many as will
%R: jig
B: "The Compleat Country Dancing-Master" printed by John Walsh, London ca. 1740
S: 6: CCDM1 http://imslp.org/wiki/The_Compleat_Country_Dancing-Master_(Various) V.1 p.102 #144 (204)
B: "The Dancing-Master: Containing Directions and Tunes for Dancing" printed by W. Pearson for John Walsh, London ca. 1709
S: 7: DMDfD http://digital.nls.uk/special-collections-of-printed-music/pageturner.cfm?id=89751228 p.272
Z: 2013 John Chambers <jc:trillian.mit.edu>
N: The actual time signature is 6/4, but the notes are half that value.
N: The lord's name is spelled differently in various printings of this tune/dance.
N: Partly-legible text verified by comparison with http://deriv.nls.uk/dcn30/8975/89754487.30.jpg
M: 6/8
L: 1/8
K: Dm
% - - - - - - - - - - - - - - - - - - - - - - - - -
A |\
FAF D2F | A2d d2e | fgf fga | e3 A2A |\
FAF D2F | A2d d2e | fgf fge | d3- d2 |]
e |\
eAe eae | eAe eae | ^fga a2^g | a3- a2a |\
aff fdd | dAA AFA | def f>ed | d3- d2 |]
% - - - - - - - - - - - - - - - - - - - - - - - - -
%%begintext align
%% The 1st Man turn the 2d Wo. and Hands half round, then turn single .|
%% The 1st Wo. does the same :| The 1st Cu. do the half figure between
%% the 2d Cu. and the 2d Cu. do the same .| Then lead through the 2d
%% Cu. and right and left Sides .|
%% [CCDM1]
%%endtext
%%sep 1 1 500
% - - - - - - - - - - - - - - - - - - - - - - - - -
%%begintext align
%% The 1. man turns the Second wo. and hands half round, then turn Single .| The 1. wo. does the same :|
%% The 1. cu. does the half Figure between the 2. cu. and the 2. cu. does the same .| Then lead through the
%% 2. cu. and right and left sides :|
%% [DMDfD]
%%endtext
%%sep 1 8 500

%%sep 1 1 500
%%sep 1 1 500
